X:3351
T:Koval'
O:england
S:A. Humenyuk
Q:144
M:2/4
L:1/8
K:B
{de}ff/2f/2 ff | {f}gf (e/2d/2c/2B/2) | AF ~d2 \
|1 Bc d/2c/2d/2e/2 :|2 [FB][F/2B/2][F/2B/2] [FB]z:|\
{de}ff/2f/2 ff | {f}gf (e/2d/2c/2B/2) |
AF ~d2 \
|1 Bc d/2c/2d/2e/2 :|2 [FB][F/2B/2][F/2B/2] [FB]z:| \
|: "tap"z .[Fc]  "tap"z .[Fc] |\
"tap"z .[Fc]  "tap"z .[Fc] \
|1 ce d/2e/2d/2c/2 | [FB][F/2B/2][F/2B/2] [FB] z \
:|2 f2 a2 | bb/2b/2 b z |]


